static/app-icons/light-theme/CloudSchematics.svg

<svg xmlns="http://www.w3.org/2000/svg" xmlns:xlink="http://www.w3.org/1999/xlink" viewBox="0 0 32 32"><defs><linearGradient id="linear-gradient" x1="14" y1="6" x2="23" y2="6" gradientUnits="userSpaceOnUse"><stop offset="0" stop-opacity="0"/><stop offset=".9"/></linearGradient><linearGradient id="linear-gradient-2" x1="-684" y1="7454" x2="-675" y2="7454" gradientTransform="translate(693 -7428)" xlink:href="#linear-gradient"/><linearGradient id="linear-gradient-3" y1="32" x2="32" gradientUnits="userSpaceOnUse"><stop offset=".1" stop-color="#08bdba"/><stop offset=".9" stop-color="#0f62fe"/></linearGradient><style>.cls-6{fill:#001d6c}</style><mask id="mask" x="0" y="0" width="32" height="32" maskUnits="userSpaceOnUse"><path d="M27 22v-3a4.006 4.006 0 00-4-4H9a2 2 0 01-2-2V9.858A4 4 0 009.858 7H22V5H9.858A3.992 3.992 0 105 9.858V13a4.006 4.006 0 004 4h14a2 2 0 012 2v3h-3v3H10v2h12v3h8v-8zM4 6a2 2 0 112 2 2 2 0 01-2-2zm24 22h-4v-4h4z" fill="#fff"/><path fill="url(#linear-gradient)" d="M14 4h9v4h-9z"/><path transform="rotate(180 13.5 26)" fill="url(#linear-gradient-2)" d="M9 24h9v4H9z"/></mask></defs><g id="Layer_2" data-name="Layer 2"><g id="Light_theme_icons" data-name="Light theme icons"><g mask="url(#mask)"><path fill="url(#linear-gradient-3)" d="M0 0h32v32H0z"/></g><path class="cls-6" d="M26 10a4 4 0 114-4 4 4 0 01-4 4zm0-6a2 2 0 102 2 2 2 0 00-2-2zM6 30a4 4 0 114-4 4 4 0 01-4 4zm0-6a2 2 0 102 2 2 2 0 00-2-2z"/></g></g></svg>

<svg xmlns="http://www.w3.org/2000/svg" xmlns:xlink="http://www.w3.org/1999/xlink" viewBox="0 0 32 32"><defs><style>.cls-1{fill:#fff;}.cls-2{fill:url(#linear-gradient);}.cls-3{fill:url(#linear-gradient-2);}.cls-4{mask:url(#mask);}.cls-5{fill:url(#linear-gradient-3);}.cls-6{fill:#001d6c;}</style><linearGradient id="linear-gradient" x1="14" y1="6" x2="23" y2="6" gradientUnits="userSpaceOnUse"><stop offset="0" stop-opacity="0"/><stop offset="0.9"/></linearGradient><linearGradient id="linear-gradient-2" x1="-684" y1="7454" x2="-675" y2="7454" gradientTransform="translate(693 -7428)" xlink:href="#linear-gradient"/><mask id="mask" x="0" y="0" width="32" height="32" maskUnits="userSpaceOnUse"><path class="cls-1" d="M27,22V19a4.006,4.006,0,0,0-4-4H9a2,2,0,0,1-2-2V9.858A4,4,0,0,0,9.858,7H22V5H9.858A3.992,3.992,0,1,0,5,9.858V13a4.006,4.006,0,0,0,4,4H23a2,2,0,0,1,2,2v3H22v3H10v2H22v3h8V22ZM4,6A2,2,0,1,1,6,8,2,2,0,0,1,4,6ZM28,28H24V24h4Z"/><rect class="cls-2" x="14" y="4" width="9" height="4"/><rect class="cls-3" x="9" y="24" width="9" height="4" transform="translate(27 52) rotate(180)"/></mask><linearGradient id="linear-gradient-3" y1="32" x2="32" gradientUnits="userSpaceOnUse"><stop offset="0.1" stop-color="#08bdba"/><stop offset="0.9" stop-color="#0f62fe"/></linearGradient></defs><g id="Layer_2" data-name="Layer 2"><g id="Light_theme_icons" data-name="Light theme icons"><g class="cls-4"><rect class="cls-5" width="32" height="32"/></g><path class="cls-6" d="M26,10a4,4,0,1,1,4-4A4,4,0,0,1,26,10Zm0-6a2,2,0,1,0,2,2A2,2,0,0,0,26,4Z"/><path class="cls-6" d="M6,30a4,4,0,1,1,4-4A4,4,0,0,1,6,30Zm0-6a2,2,0,1,0,2,2A2,2,0,0,0,6,24Z"/></g></g></svg>
